public/svgs/spectrum/digital-twin.svg

<svg width="1em" height="1em" viewBox="0 0 30 30" fill="current" xmlns="http://www.w3.org/2000/svg">
    <path
        d="M8.01683 10.7347C8.17436 9.86973 7.67213 9.02069 6.82794 8.72706C6.42094 8.584 5.97663 8.58833 5.57249 8.73928C5.16835 8.89023 4.83002 9.17823 4.61649 9.55306C4.4087 9.92564 4.34189 10.3605 4.42825 10.7783C4.51461 11.1961 4.74839 11.5688 5.08688 11.8285C5.42904 12.0922 5.85257 12.228 6.28425 12.2124C6.71593 12.1969 7.12861 12.031 7.45093 11.7435L9.93683 13.0848C9.99556 13.1161 10.0592 13.1375 10.1245 13.1485L10.2233 13.1573H12.8635V12.0091H10.3595L8.01683 10.7352V10.7347ZM12.6862 14.9404H6.55734C6.3098 14.2099 5.61436 13.7176 4.83055 13.7176C3.898 13.7143 3.11419 14.4026 3.01155 15.312C2.90726 16.2231 3.51981 17.0633 4.42877 17.2615C4.86539 17.3597 5.32286 17.2948 5.71495 17.079C6.10704 16.8633 6.40666 16.5116 6.55734 16.0902H12.1527C12.1719 16.0902 12.1933 16.0902 12.2131 16.0869H12.6867C12.71 16.0869 12.7329 16.0824 12.7544 16.0735C12.7758 16.0646 12.7953 16.0516 12.8117 16.0352C12.8281 16.0188 12.8411 15.9993 12.85 15.9779C12.8589 15.9564 12.8635 15.9334 12.8635 15.9102V15.1172C12.8635 15.0939 12.8589 15.071 12.85 15.0495C12.8411 15.0281 12.8281 15.0086 12.8117 14.9922C12.7953 14.9758 12.7758 14.9628 12.7544 14.9539C12.7329 14.945 12.71 14.9404 12.6867 14.9404H12.6862ZM8.43124 7.5981C8.93951 8.45813 10.0592 8.75176 10.9331 8.25451C11.14 8.13876 11.3218 7.98291 11.4678 7.79607C11.6138 7.60924 11.7211 7.39517 11.7834 7.16638C11.8457 6.9376 11.8618 6.69868 11.8307 6.46362C11.7995 6.22856 11.7219 6.00206 11.6021 5.79737C11.0944 4.93899 9.97415 4.64537 9.09868 5.14261C8.26822 5.61461 7.957 6.6316 8.36153 7.46803L8.43124 7.5981ZM25.8748 16.5699L24.1239 13.6858L24.1464 13.4322L24.1601 13.1842L24.1656 12.9789V12.6172L24.1568 12.3444L24.1392 12.0492C24.1353 11.9974 24.1311 11.9456 24.1266 11.8938L24.0931 11.5695C23.9263 10.1837 23.4202 8.38129 22.0183 7.00536C20.0072 5.05357 17.3072 3.97381 14.5047 4.00048C14.335 4.00048 14.1704 4.06744 14.0502 4.18599C13.9294 4.30399 13.8614 4.46535 13.8608 4.63384V26.2338C13.8608 26.6564 14.2115 27 14.643 27H18.3589C18.5934 26.9997 18.8182 26.9064 18.9839 26.7405C19.1496 26.5746 19.2426 26.3497 19.2426 26.1153V24.0012H23.2808C23.7693 24.0012 24.1656 23.6055 24.1656 23.1164V19.2241C24.1656 19.1884 24.1656 19.1527 24.1601 19.1176L24.1562 18.7993L25.6124 17.7697C26.0005 17.5007 26.1147 16.9772 25.8748 16.5705V16.5699ZM10.9331 22.7827C10.5127 22.5436 10.0157 22.4779 9.54767 22.5994C9.0811 22.7182 8.68074 23.0172 8.43453 23.4309C7.92626 24.2871 8.22211 25.3837 9.09429 25.8826C9.49041 26.1096 9.95663 26.1818 10.4029 26.0852C10.8491 25.9886 11.2438 25.7301 11.5105 25.3595L11.5928 25.2349C11.7131 25.0313 11.7914 24.8057 11.8233 24.5714C11.8552 24.3371 11.84 24.0987 11.7786 23.8704C11.7171 23.642 11.6107 23.4282 11.4655 23.2416C11.3203 23.0549 11.1393 22.8991 10.9331 22.7833V22.7827ZM12.6862 17.8772H12.3311L12.2937 17.8734L10.2272 17.8718C10.1284 17.8718 10.0296 17.8948 9.94232 17.9426L7.45477 19.2834C7.16706 19.025 6.80559 18.8634 6.42121 18.8211C6.03683 18.7789 5.64887 18.8582 5.31192 19.0479C4.92949 19.2662 4.64173 19.6187 4.50442 20.0371C4.36711 20.4555 4.39003 20.91 4.56873 21.3124C4.94033 22.1423 5.88331 22.5692 6.76647 22.3107C7.65072 22.0506 8.19906 21.1834 8.04373 20.2905L10.3864 19.0216H10.4577L10.4819 19.0232H12.6862C12.7331 19.0232 12.778 19.0046 12.8112 18.9715C12.8443 18.9383 12.8629 18.8934 12.8629 18.8465V18.054C12.8629 18.0308 12.8584 18.0078 12.8495 17.9863C12.8406 17.9649 12.8276 17.9454 12.8112 17.929C12.7948 17.9126 12.7753 17.8996 12.7538 17.8907C12.7324 17.8818 12.7094 17.8772 12.6862 17.8772Z"
        fill="current" />
</svg>

<svg xmlns="http://www.w3.org/2000/svg" width="1em" height="1em" fill="current" viewBox="0 0 30 30"><path d="M8.017 10.735a1.79 1.79 0 0 0-1.19-2.008 1.84 1.84 0 0 0-2.21.826 1.78 1.78 0 0 0 .47 2.275 1.85 1.85 0 0 0 2.364-.085l2.486 1.342a.6.6 0 0 0 .188.063l.098.01h2.64v-1.149H10.36zm4.67 4.205h-6.13a1.82 1.82 0 0 0-1.726-1.222 1.81 1.81 0 0 0-1.82 1.594 1.795 1.795 0 0 0 1.418 1.95 1.833 1.833 0 0 0 2.128-1.172h5.596q.03 0 .06-.003h.474a.177.177 0 0 0 .177-.177v-.793a.177.177 0 0 0-.177-.177M8.43 7.598a1.85 1.85 0 0 0 3.037.198 1.78 1.78 0 0 0 .134-1.999A1.85 1.85 0 0 0 9.1 5.143a1.78 1.78 0 0 0-.737 2.325zm17.444 8.972-1.751-2.884.022-.254.014-.248.006-.205v-.362l-.01-.273-.017-.295-.012-.155-.034-.325c-.167-1.385-.673-3.188-2.075-4.564A10.64 10.64 0 0 0 14.505 4a.65.65 0 0 0-.455.186.63.63 0 0 0-.19.448v21.6c0 .422.351.766.783.766h3.716a.885.885 0 0 0 .884-.885v-2.114h4.038a.885.885 0 0 0 .885-.885v-3.892q.002-.054-.006-.106l-.004-.319 1.456-1.03a.9.9 0 0 0 .263-1.198zm-14.942 6.213a1.86 1.86 0 0 0-1.385-.184 1.82 1.82 0 0 0-1.113.832 1.774 1.774 0 0 0 .66 2.452 1.846 1.846 0 0 0 2.415-.523l.083-.125a1.775 1.775 0 0 0-.66-2.452m1.753-4.906h-.355l-.037-.004-2.067-.001a.6.6 0 0 0-.285.07l-2.487 1.341a1.85 1.85 0 0 0-2.143-.235 1.777 1.777 0 0 0-.743 2.264 1.84 1.84 0 0 0 2.197.999 1.793 1.793 0 0 0 1.278-2.02l2.342-1.27h.072l.024.002h2.204a.177.177 0 0 0 .177-.177v-.792a.177.177 0 0 0-.177-.177"/></svg>
